X:4000
T:The Kilt is My Delight
C:TBD
B: Scots Guard I(202)
O:Arranged by Kevin Fraser
Z:Kevin Fraser
Q:1/4=105
M:2/2
L:1/8
R:Reel
V:1 gstem=up stem=down
I:MIDI=program 110
K:HP
%%MIDI gracedivider 8
%%MIDI gchord
%%MIDI beatstring 
%%alignbars 80
%%landscape
% abc2xml.py percussion maps
I:percmap C D 52 triangle
I:percmap A * 60 x
I:percmap c * 47 diamond
%
% abcm2ps / abc2svg percussion maps
%
%%map drummap C print=D heads=triangle
%%map drummap A heads=x_head
%%map drummap c heads=diamond
%
V:1
[| e |  "A"{g}A>{d}A{e}A>{d}B "D"{g}A>B{g}d>f | "E"{g}e2 {GdG}e>f "B"{gde}d>B{G}B>e | "A"{g}A>{d}A{e}A>{d}B "D"{g}A>B{g}d>f | "E"{g}e2 {GdG}e>f "D"{Gdc}d2 {g}d |
   e |  "A"{g}A>{d}A{e}A>{d}B "D"{g}A>B{g}d>f | "E"{g}e2 {GdG}e>f "B"{gde}d>B{G}B>e | "A"{g}A>{d}A{e}A>{d}B "D"{g}A>B{g}d>f | "E"{g}e2 {GdG}e>f "D"{Gdc}d2 {g}d |]    
   e |  "G"{gf}g2 a>g         "F"{fg}f2 a>f   | "E"{g}e2 {GdG}e>f "D"{gde}d>B{G}B>e | "G"{gf}g2 a>g         "F"{fg}f2 a>f   | "E"{g}e2 {GdG}e>f "D"{Gdc}d2 {g}d  |
   e |  "G"{gf}g2 a>g         "F"{fg}f2 a>f   | "E"{g}e2 {GdG}e>f "D"{gde}d>B{G}B>e | "G"{g}A>{d}A{e}A>{d}B "F"{g}A>B{g}d>f | "E"{g}e2 {GdG}e>f "D"{Gdc}d2 {g}d  |]


